X:1
T:Title
%%score { ( 1 3 ) | ( 2 4 ) }
L:1/8
Q:1/4=90
M:3/4
K:Ab
V:1 treble nm="Grand Piano"
V:3 treble 
V:2 bass 
V:4 bass 
V:1
 [CE]4 [DF]2 | F2 E2 E2 | z2 B,2 [=DA]2 | [B,DA]2 [B,DG]2 [B,EG]>[B,EG] | A2 c2 [_Ge]2 | e2 d2 B2 | %6
w: George~J.~Elvey *||||||
 A4 G2 | [CA]6 | [DA]6 | [CA]6 |] %10
w: ||||
V:2
 [A,,A,]4 [A,,A,]2 | [G,B,D]2 [G,B,D]2 [G,B,D]2 | [A,C]2 z E z B, | E,2 E,2 D,>D, | %4
 C,2 A,,2 [C,A,]2 | A,2 z2 z2 | [E,CE]4 [E,B,D]2 | [A,,A,]6 | F,4 z2 | [A,,E,]6 |] %10
V:3
 x6 | x6 | E4 z2 | x6 | [A,E]4 z2 | F4 z2 | x6 | x6 | z2 z2 =E,2 | x6 |] %10
V:4
 x6 | x6 | z2 G,2 F,2 | x6 | x6 | D,2- [D,B,]2 [D,D]2 | x6 | x6 | A,,6 | x6 |] %10

